public/reservoirMarketLogoLight.svg

<svg width="113" height="36" viewBox="0 0 113 36" fill="none" xmlns="http://www.w3.org/2000/svg">
<path d="M31.1703 27.0083L15.5938 17.9999V0L31.1703 9.00833V27.0083Z" fill="#80D8FF"/>
<path d="M0 27.0083L15.5933 17.9999V0L0 9.00833V27.0083Z" fill="#7ACFFF"/>
<path d="M15.5933 27.0084L31.1698 18.0001L15.5933 9.00845L0 18.0001L15.5933 27.0084Z" fill="url(#paint0_linear_1140_4458)"/>
<path opacity="0.3" d="M15.5933 36L0 27.0084V9.00845L15.5933 18.0001V36Z" fill="#E4F0FE"/>
<path d="M0 27.0081L15.5933 35.9997V27.0081L0 17.9998V27.0081Z" fill="url(#paint1_linear_1140_4458)"/>
<path opacity="0.3" d="M15.5938 36L31.1703 27.0084V9.00845L15.5938 18.0001V36Z" fill="#D0E6FF"/>
<path d="M31.1703 27.0081L15.5938 35.9997V27.0081L31.1703 17.9998V27.0081Z" fill="url(#paint2_linear_1140_4458)"/>
<path opacity="0.3" d="M15.5933 17.9999L31.1698 9.00833L15.5933 0L0 9.00833L15.5933 17.9999Z" fill="white"/>
<path d="M37.0002 8.5188C37.759 8.4646 38.5178 8.4646 39.2947 8.5188L39.4573 10.0544H39.5656C39.8547 8.84399 41.029 8.33813 42.673 8.33813C42.7453 8.95239 42.7453 9.96409 42.673 10.5783C40.6316 10.5783 40.0715 10.9939 39.5837 12.2946V17.9132C38.9514 18.0036 37.6145 18.0036 37.0002 17.9132V8.5188Z" fill="black"/>
<path d="M52.2121 14.0109C51.0016 14.1013 48.2194 14.1193 46.6657 14.029V14.4806C46.6657 15.7634 47.4065 15.9982 48.9602 15.9982C50.0261 15.9982 50.7848 15.9079 51.7966 15.7092C51.8688 16.3234 51.8688 17.1906 51.7966 17.8048C50.5319 18.0216 49.5202 18.13 48.3278 18.13C45.7263 18.13 44.0823 17.3532 44.0823 15.0588V11.4455C44.0823 9.04272 45.8166 8.33813 48.2194 8.33813C50.6042 8.33813 52.2121 9.34984 52.2121 11.9333V14.0109ZM49.6828 11.8249C49.6828 10.5964 48.9782 10.4519 48.1833 10.4519C47.3884 10.4519 46.6657 10.5964 46.6657 11.8249V12.5295L48.0568 12.4392H49.6828V11.8249Z" fill="black"/>
<path d="M60.8115 15.7092C60.8115 17.4616 59.4384 18.13 57.1982 18.13C56.2407 18.13 55.1387 18.0578 54.1089 17.8771C54.0186 17.2267 54.0186 16.486 54.1089 15.8537C55.0845 16.0163 56.06 16.0705 56.8188 16.0705C57.5415 16.0705 58.228 16.0163 58.228 15.402V15.0588C58.228 14.5348 57.8667 14.4445 57.2524 14.2819L55.6264 13.8122C54.5967 13.5231 54.0366 12.8728 54.0366 11.6804V10.6867C54.0366 9.00658 55.4819 8.33813 57.7763 8.33813C58.6796 8.33813 59.6191 8.4104 60.6669 8.62719C60.7573 9.27758 60.7573 10.0002 60.6669 10.6325C59.5649 10.4338 58.8603 10.3796 58.0654 10.3796C57.2885 10.3796 56.6201 10.4338 56.6201 11.0481V11.3913C56.6201 11.843 57.0356 12.0056 57.5957 12.1682L59.1132 12.5837C60.2333 12.8908 60.8115 13.4509 60.8115 14.8239V15.7092Z" fill="black"/>
<path d="M70.8564 14.0109C69.6459 14.1013 66.8637 14.1193 65.31 14.029V14.4806C65.31 15.7634 66.0507 15.9982 67.6044 15.9982C68.6703 15.9982 69.4291 15.9079 70.4408 15.7092C70.5131 16.3234 70.5131 17.1906 70.4408 17.8048C69.1762 18.0216 68.1645 18.13 66.9721 18.13C64.3706 18.13 62.7266 17.3532 62.7266 15.0588V11.4455C62.7266 9.04272 64.4609 8.33813 66.8637 8.33813C69.2485 8.33813 70.8564 9.34984 70.8564 11.9333V14.0109ZM68.3271 11.8249C68.3271 10.5964 67.6225 10.4519 66.8276 10.4519C66.0327 10.4519 65.31 10.5964 65.31 11.8249V12.5295L66.7011 12.4392H68.3271V11.8249Z" fill="black"/>
<path d="M73.1143 8.5188C73.873 8.4646 74.6318 8.4646 75.4087 8.5188L75.5713 10.0544H75.6797C75.9687 8.84399 77.143 8.33813 78.7871 8.33813C78.8593 8.95239 78.8593 9.96409 78.7871 10.5783C76.7456 10.5783 76.1855 10.9939 75.6977 12.2946V17.9132C75.0654 18.0036 73.7285 18.0036 73.1143 17.9132V8.5188Z" fill="black"/>
<path d="M80.522 8.59051C81.1543 8.50018 82.4912 8.50018 83.1054 8.59051L85.0747 15.546L87.0258 8.59051C87.6401 8.50018 88.9228 8.50018 89.537 8.59051L86.6645 17.9127C85.8696 18.003 84.2075 18.003 83.4126 17.9127L80.522 8.59051Z" fill="black"/>
<path d="M99.5275 15.1125C99.5275 17.3527 97.8293 18.1296 95.3 18.1296C92.7707 18.1296 91.0725 17.3527 91.0725 15.1125V11.3909C91.0725 9.06033 92.7707 8.33768 95.3 8.33768C97.8293 8.33768 99.5275 9.06033 99.5275 11.3909V15.1125ZM96.944 11.9148C96.944 10.6682 96.1852 10.5237 95.3 10.5237C94.3967 10.5237 93.656 10.6682 93.656 11.9148V14.5525C93.656 15.781 94.3967 15.9255 95.3 15.9255C96.1852 15.9255 96.944 15.781 96.944 14.5525V11.9148Z" fill="black"/>
<path d="M104.568 7.1273C103.936 7.21763 102.508 7.21763 101.858 7.1273L101.822 5.06775C102.472 4.97742 103.972 4.97742 104.622 5.06775L104.568 7.1273ZM101.93 8.59066C102.544 8.50033 103.881 8.50033 104.514 8.59066V17.9128C103.881 18.0032 102.544 18.0032 101.93 17.9128V8.59066Z" fill="black"/>
<path d="M107.151 8.51834C107.91 8.46414 108.669 8.46414 109.446 8.51834L109.608 10.054H109.717C110.006 8.84353 111.18 8.33768 112.824 8.33768C112.896 8.95193 112.896 9.96364 112.824 10.5779C110.783 10.5779 110.223 10.9934 109.735 12.2942V17.9128C109.103 18.0031 107.766 18.0031 107.151 17.9128V8.51834Z" fill="black"/>
<path d="M42.9318 26.8886C43.3124 26.935 44.1571 26.935 44.5377 26.8886V23.3054C44.5377 22.275 43.8786 21.9223 43.006 21.9223C42.2912 21.9223 41.725 22.1265 41.5579 22.7206H41.4743C41.2701 22.1358 40.7132 21.9223 40.0355 21.9223C39.3207 21.9223 38.7545 22.1265 38.5967 22.7206H38.5317L38.4388 22.0151C38.0675 21.978 37.3713 21.978 37 22.0151V26.8886C37.3806 26.935 38.2253 26.935 38.6059 26.8886V23.8717C38.7266 23.389 38.9216 23.2776 39.3486 23.2776C39.7013 23.2776 39.9612 23.3797 39.9612 24.0852V26.8886C40.3326 26.935 41.1866 26.935 41.5672 26.8886V23.8717C41.6971 23.389 41.8921 23.2776 42.3098 23.2776C42.6811 23.2776 42.9318 23.3797 42.9318 24.0852V26.8886Z" fill="#687076"/>
<path d="M48.4897 26.935C48.8611 26.9814 49.5573 26.9814 49.9379 26.935V23.556C49.9379 22.3121 49.1488 21.9223 47.6357 21.9223C47.0323 21.9223 46.4661 21.9594 45.7699 22.0893C45.7234 22.4699 45.7234 22.9341 45.7699 23.3147C46.3268 23.2219 46.7817 23.1847 47.1344 23.1847C48.0534 23.1847 48.3319 23.4354 48.3319 23.8717V24.0852C47.9049 24.0295 47.5707 24.0016 47.0973 24.0016C46.0855 24.0016 45.3707 24.2801 45.3707 25.6076C45.3707 26.6101 46.0391 27 46.9116 27C47.6357 27 48.202 26.7772 48.3412 26.2109H48.4062L48.4897 26.935ZM48.3319 25.4405C48.1741 25.7375 47.9142 25.8489 47.5429 25.8489C47.2273 25.8489 46.9766 25.8025 46.9766 25.3941C46.9766 24.967 47.2273 24.9113 47.6636 24.9113C47.8307 24.9113 48.0906 24.9392 48.3319 24.9949V25.4405Z" fill="#687076"/>
<path d="M51.0059 26.8886C51.3865 26.935 52.2312 26.935 52.6118 26.8886V24.178C52.8625 23.5096 53.1502 23.2961 54.2178 23.2961C54.2549 22.9248 54.2549 22.3029 54.2178 21.9223C53.3452 21.9223 52.7511 22.1915 52.6026 22.832H52.5376L52.4447 22.0151C51.962 21.9872 51.4886 21.9872 51.0059 22.0151V26.8886Z" fill="#687076"/>
<path d="M58.05 26.8886C58.4213 26.935 59.4332 26.935 59.7952 26.8886L58.2357 24.1409L59.7395 21.978C59.3775 21.9315 58.3842 21.9315 58.0222 21.978L56.9546 23.5003L56.5462 23.5653V20.2421C56.1656 20.1956 55.3208 20.1956 54.9403 20.2421V26.8886C55.3208 26.935 56.1656 26.935 56.5462 26.8886V24.9299L56.8989 24.8742L58.05 26.8886Z" fill="#687076"/>
<path d="M64.6953 23.8067C64.6953 22.3771 63.6835 21.9223 62.5417 21.9223C61.2421 21.9223 60.3138 22.2936 60.3138 23.5839V25.3569C60.3138 26.5915 61.2142 27 62.616 27C63.2658 27 63.7949 26.9443 64.4725 26.8236C64.5189 26.4523 64.5189 25.9696 64.4725 25.589C63.9527 25.6818 63.5535 25.7375 63.0337 25.7375C62.2168 25.7375 61.9197 25.6076 61.9197 25.032V24.9299C62.6902 24.9763 64.1012 24.9763 64.6953 24.9206V23.8067ZM63.1358 24.0295H62.4674L61.9197 24.0759V23.7788C61.9197 23.2497 62.2168 23.1847 62.5231 23.1847C62.8387 23.1847 63.1358 23.2497 63.1358 23.7881V24.0295Z" fill="#687076"/>
<path d="M68.7084 23.259C68.7548 22.8877 68.7548 22.4142 68.7084 22.0337H67.5759V20.864C67.1953 20.8176 66.3506 20.8176 65.97 20.864V22.0615L65.3387 22.1079C65.2923 22.4792 65.2923 22.8877 65.3387 23.259H65.97V25.3848C65.97 26.6287 66.8054 27 67.743 27C68.0958 27 68.3928 26.9721 68.7084 26.9072C68.7548 26.5358 68.7548 25.9789 68.7084 25.6076C68.5506 25.6354 68.3557 25.654 68.1979 25.654C67.873 25.654 67.5759 25.6076 67.5759 24.8185V23.259H68.7084Z" fill="#687076"/>
<defs>
<linearGradient id="paint0_linear_1140_4458" x1="0.583201" y1="21.3607" x2="31.0076" y2="14.5602" gradientUnits="userSpaceOnUse">
<stop stop-color="#C132CE"/>
<stop offset="1" stop-color="#425AFA"/>
</linearGradient>
<linearGradient id="paint1_linear_1140_4458" x1="5.99349" y1="21.0164" x2="10.4809" y2="35.9445" gradientUnits="userSpaceOnUse">
<stop stop-color="#425AFA"/>
<stop offset="0.16" stop-color="#5A52F2"/>
<stop offset="0.55" stop-color="#9241DE"/>
<stop offset="0.84" stop-color="#B436D3"/>
<stop offset="1" stop-color="#C132CE"/>
</linearGradient>
<linearGradient id="paint2_linear_1140_4458" x1="18.3486" y1="33.1823" x2="28.2895" y2="20.9851" gradientUnits="userSpaceOnUse">
<stop stop-color="#C132CE"/>
<stop offset="0.1" stop-color="#AB39D6"/>
<stop offset="0.28" stop-color="#8545E3"/>
<stop offset="0.47" stop-color="#684EED"/>
<stop offset="0.65" stop-color="#5355F4"/>
<stop offset="0.83" stop-color="#4659F9"/>
<stop offset="1" stop-color="#425AFA"/>
</linearGradient>
</defs>
</svg>

<?xml version="1.0" encoding="utf-8"?>
<!-- Generator: Adobe Illustrator 26.3.1, SVG Export Plug-In . SVG Version: 6.00 Build 0)  -->
<svg version="1.1" id="Layer_1" xmlns="http://www.w3.org/2000/svg" xmlns:xlink="http://www.w3.org/1999/xlink" x="0px" y="0px"
	 viewBox="0 0 113 36" style="enable-background:new 0 0 113 36;" xml:space="preserve">
<style type="text/css">
	.st0{fill:#80D8FF;}
	.st1{fill:#7ACFFF;}
	.st2{fill:url(#SVGID_1_);}
	.st3{opacity:0.3;fill:#E4F0FE;enable-background:new    ;}
	.st4{fill:url(#SVGID_00000069366009594144120120000005172455187701561989_);}
	.st5{opacity:0.3;fill:#D0E6FF;enable-background:new    ;}
	.st6{fill:url(#SVGID_00000033330668047477427580000001147174152306828211_);}
	.st7{opacity:0.3;fill:#FFFFFF;enable-background:new    ;}
	.st8{fill:#687076;}
</style>
<g>
	<path class="st0" d="M31.2,27l-15.6-9V0l15.6,9V27z"/>
	<path class="st1" d="M0,27l15.6-9V0L0,9V27z"/>
	
		<linearGradient id="SVGID_1_" gradientUnits="userSpaceOnUse" x1="0.5838" y1="16.6366" x2="31.0082" y2="23.4372" gradientTransform="matrix(1 0 0 -1 0 38)">
		<stop  offset="0" style="stop-color:#C132CE"/>
		<stop  offset="1" style="stop-color:#425AFA"/>
	</linearGradient>
	<path class="st2" d="M15.6,27l15.6-9L15.6,9L0,18L15.6,27z"/>
	<path class="st3" d="M15.6,36L0,27V9l15.6,9V36z"/>
	
		<linearGradient id="SVGID_00000051342142352281228420000014239414145845821097_" gradientUnits="userSpaceOnUse" x1="5.9954" y1="16.9842" x2="10.4828" y2="2.0561" gradientTransform="matrix(1 0 0 -1 0 38)">
		<stop  offset="0" style="stop-color:#425AFA"/>
		<stop  offset="0.16" style="stop-color:#5A52F2"/>
		<stop  offset="0.55" style="stop-color:#9241DE"/>
		<stop  offset="0.84" style="stop-color:#B436D3"/>
		<stop  offset="1" style="stop-color:#C132CE"/>
	</linearGradient>
	<path style="fill:url(#SVGID_00000051342142352281228420000014239414145845821097_);" d="M0,27l15.6,9v-9L0,18V27z"/>
	<path class="st5" d="M15.6,36l15.6-9V9l-15.6,9V36z"/>
	
		<linearGradient id="SVGID_00000134241509824311280220000000377286090988085946_" gradientUnits="userSpaceOnUse" x1="18.3494" y1="4.817" x2="28.2903" y2="17.0142" gradientTransform="matrix(1 0 0 -1 0 38)">
		<stop  offset="0" style="stop-color:#C132CE"/>
		<stop  offset="0.1" style="stop-color:#AB39D6"/>
		<stop  offset="0.28" style="stop-color:#8545E3"/>
		<stop  offset="0.47" style="stop-color:#684EED"/>
		<stop  offset="0.65" style="stop-color:#5355F4"/>
		<stop  offset="0.83" style="stop-color:#4659F9"/>
		<stop  offset="1" style="stop-color:#425AFA"/>
	</linearGradient>
	<path style="fill:url(#SVGID_00000134241509824311280220000000377286090988085946_);" d="M31.2,27l-15.6,9v-9l15.6-9V27z"/>
	<path class="st7" d="M15.6,18l15.6-9L15.6,0L0,9L15.6,18z"/>
</g>
<path d="M37,8.5c0.8-0.1,1.5-0.1,2.3,0l0.2,1.5h0.1c0.3-1.2,1.5-1.7,3.1-1.7c0.1,0.6,0.1,1.6,0,2.2c-2,0-2.6,0.4-3.1,1.7v5.6
	c-0.6,0.1-2,0.1-2.6,0V8.5L37,8.5z"/>
<path d="M52.2,14c-1.2,0.1-4,0.1-5.5,0v0.5c0,1.3,0.7,1.5,2.3,1.5c1.1,0,1.8-0.1,2.8-0.3c0.1,0.6,0.1,1.5,0,2.1
	c-1.3,0.2-2.3,0.3-3.5,0.3c-2.6,0-4.2-0.8-4.2-3.1v-3.6c0-2.4,1.7-3.1,4.1-3.1c2.4,0,4,1,4,3.6V14z M49.7,11.8
	c0-1.2-0.7-1.4-1.5-1.4c-0.8,0-1.5,0.1-1.5,1.4v0.7l1.4-0.1h1.6V11.8L49.7,11.8z"/>
<path d="M60.8,15.7c0,1.8-1.4,2.4-3.6,2.4c-1,0-2.1-0.1-3.1-0.3c-0.1-0.7-0.1-1.4,0-2c1,0.2,2,0.2,2.7,0.2c0.7,0,1.4-0.1,1.4-0.7
	v-0.3c0-0.5-0.4-0.6-1-0.8l-1.6-0.5c-1-0.3-1.6-0.9-1.6-2.1v-1c0-1.7,1.4-2.3,3.7-2.3c0.9,0,1.8,0.1,2.9,0.3c0.1,0.7,0.1,1.4,0,2
	c-1.1-0.2-1.8-0.3-2.6-0.3c-0.8,0-1.4,0.1-1.4,0.7v0.3c0,0.5,0.4,0.6,1,0.8l1.5,0.4c1.1,0.3,1.7,0.9,1.7,2.2V15.7L60.8,15.7z"/>
<path d="M70.9,14c-1.2,0.1-4,0.1-5.5,0v0.5c0,1.3,0.7,1.5,2.3,1.5c1.1,0,1.8-0.1,2.8-0.3c0.1,0.6,0.1,1.5,0,2.1
	c-1.3,0.2-2.3,0.3-3.5,0.3c-2.6,0-4.2-0.8-4.2-3.1v-3.6c0-2.4,1.7-3.1,4.1-3.1c2.4,0,4,1,4,3.6V14z M68.3,11.8
	c0-1.2-0.7-1.4-1.5-1.4s-1.5,0.1-1.5,1.4v0.7l1.4-0.1h1.6V11.8z"/>
<path d="M73.1,8.5c0.8-0.1,1.5-0.1,2.3,0l0.2,1.5h0.1c0.3-1.2,1.5-1.7,3.1-1.7c0.1,0.6,0.1,1.6,0,2.2c-2,0-2.6,0.4-3.1,1.7v5.6
	c-0.6,0.1-2,0.1-2.6,0V8.5L73.1,8.5z"/>
<path d="M80.5,8.6c0.6-0.1,2-0.1,2.6,0l2,7l2-7c0.6-0.1,1.9-0.1,2.5,0l-2.9,9.3c-0.8,0.1-2.5,0.1-3.3,0L80.5,8.6z"/>
<path d="M99.5,15.1c0,2.2-1.7,3-4.2,3c-2.5,0-4.2-0.8-4.2-3v-3.7c0-2.3,1.7-3.1,4.2-3.1c2.5,0,4.2,0.7,4.2,3.1V15.1z M96.9,11.9
	c0-1.2-0.8-1.4-1.6-1.4c-0.9,0-1.6,0.1-1.6,1.4v2.6c0,1.2,0.7,1.4,1.6,1.4c0.9,0,1.6-0.1,1.6-1.4V11.9z"/>
<path d="M104.6,7.1c-0.6,0.1-2.1,0.1-2.7,0l0-2.1c0.7-0.1,2.2-0.1,2.8,0L104.6,7.1z M101.9,8.6c0.6-0.1,2-0.1,2.6,0v9.3
	c-0.6,0.1-2,0.1-2.6,0V8.6z"/>
<path d="M107.2,8.5c0.8-0.1,1.5-0.1,2.3,0l0.2,1.5h0.1c0.3-1.2,1.5-1.7,3.1-1.7c0.1,0.6,0.1,1.6,0,2.2c-2,0-2.6,0.4-3.1,1.7v5.6
	c-0.6,0.1-2,0.1-2.6,0V8.5L107.2,8.5z"/>
<path class="st8" d="M42.9,26.9c0.4,0,1.2,0,1.6,0v-3.6c0-1-0.7-1.4-1.5-1.4c-0.7,0-1.3,0.2-1.4,0.8h-0.1c-0.2-0.6-0.8-0.8-1.4-0.8
	c-0.7,0-1.3,0.2-1.4,0.8h-0.1L38.4,22c-0.4,0-1.1,0-1.4,0v4.9c0.4,0,1.2,0,1.6,0v-3c0.1-0.5,0.3-0.6,0.7-0.6c0.4,0,0.6,0.1,0.6,0.8
	v2.8c0.4,0,1.2,0,1.6,0v-3c0.1-0.5,0.3-0.6,0.7-0.6c0.4,0,0.6,0.1,0.6,0.8V26.9z"/>
<path class="st8" d="M48.5,26.9c0.4,0,1.1,0,1.4,0v-3.4c0-1.2-0.8-1.6-2.3-1.6c-0.6,0-1.2,0-1.9,0.2c0,0.4,0,0.8,0,1.2
	c0.6-0.1,1-0.1,1.4-0.1c0.9,0,1.2,0.3,1.2,0.7v0.2C47.9,24,47.6,24,47.1,24c-1,0-1.7,0.3-1.7,1.6c0,1,0.7,1.4,1.5,1.4
	c0.7,0,1.3-0.2,1.4-0.8h0.1L48.5,26.9z M48.3,25.4c-0.2,0.3-0.4,0.4-0.8,0.4c-0.3,0-0.6,0-0.6-0.5c0-0.4,0.3-0.5,0.7-0.5
	c0.2,0,0.4,0,0.7,0.1V25.4z"/>
<path class="st8" d="M51,26.9c0.4,0,1.2,0,1.6,0v-2.7c0.3-0.7,0.5-0.9,1.6-0.9c0-0.4,0-1,0-1.4c-0.9,0-1.5,0.3-1.6,0.9h-0.1L52.4,22
	c-0.5,0-1,0-1.4,0V26.9z"/>
<path class="st8" d="M58,26.9c0.4,0,1.4,0,1.7,0l-1.6-2.7l1.5-2.2c-0.4,0-1.4,0-1.7,0L57,23.5l-0.4,0.1v-3.3c-0.4,0-1.2,0-1.6,0v6.6
	c0.4,0,1.2,0,1.6,0v-2l0.4-0.1L58,26.9z"/>
<path class="st8" d="M64.7,23.8c0-1.4-1-1.9-2.2-1.9c-1.3,0-2.2,0.4-2.2,1.7v1.8c0,1.2,0.9,1.6,2.3,1.6c0.6,0,1.2-0.1,1.9-0.2
	c0-0.4,0-0.9,0-1.2c-0.5,0.1-0.9,0.1-1.4,0.1c-0.8,0-1.1-0.1-1.1-0.7v-0.1c0.8,0,2.2,0,2.8,0V23.8z M63.1,24h-0.7l-0.5,0v-0.3
	c0-0.5,0.3-0.6,0.6-0.6c0.3,0,0.6,0.1,0.6,0.6V24z"/>
<path class="st8" d="M68.7,23.3c0-0.4,0-0.8,0-1.2h-1.1v-1.2c-0.4,0-1.2,0-1.6,0v1.2l-0.6,0c0,0.4,0,0.8,0,1.2H66v2.1
	c0,1.2,0.8,1.6,1.8,1.6c0.4,0,0.6,0,1-0.1c0-0.4,0-0.9,0-1.3c-0.2,0-0.4,0-0.5,0c-0.3,0-0.6,0-0.6-0.8v-1.6H68.7z"/>
</svg>
